!! G. F. Handel, "Fuga VI" for keyboard (1735) from Hallische Haendel-Ausgabe
!! Baerenreiter Kassel (Basel) 1970; Serie IV, Band 6, pp.21-23
!! HHA iv/6,21   New Grove No. 83; for four voices.
!! NOTE:  A single double-stop occurs in bar 63.  This file is highly
!!        interpretative concerning the voice assignment; innumerable
!!        'fixes' have been added to remedy the abberant voicing.
!! NOTE:  This file has been validated through the double-entry
!!        method of error detection.
**kern	**kern	**kern	**kern
*M4/4	*M4/4	*M4/4	*M4/4
=1	=1	=1	=1
1r	1r	4r	1r
.	.	4g	.
.	.	4a-	.
.	.	8g	.
.	.	8f	.
=2	=2	=2	=2
1r	1r	4.g	1r
.	.	16f	.
.	.	16e-	.
.	.	8f	.
.	.	8d	.
.	.	8g	.
.	.	8G	.
=3	=3	=3	=3
1r	4r	8c	1r
.	.	8d	.
.	4c	8e-	.
.	.	8f	.
.	4e-	8g	.
.	.	8c	.
.	8d	[4cc	.
.	8c	.	.
=4	=4	=4	=4
1r	4.d	8cc]	1r
.	.	16b-	.
.	.	16an	.
.	.	8b-	.
.	16c	[8g	.
.	16B-	.	.
.	8c	8g]	.
.	8An	8a	.
.	8d	8f#	.
.	8D	16g	.
.	.	16a	.
=5	=5	=5	=5
1r	8G	4.b-	1r
.	8d	.	.
.	[4g	.	.
.	.	16cc	.
.	.	16b-	.
.	8g]	4.a-	.
.	8c	.	.
.	[4fn	.	.
.	.	16b-	.
.	.	16a-	.
=6	=6	=6	=6
4r	8f]	[2g	1r
.	8f	.	.
4G	8e-	.	.
.	8d	.	.
4A-	4.c	8g]	.
.	.	16f	.
.	.	16en	.
8G	.	[4f	.
8F	8d	.	.
=7	=7	=7	=7
4.G	4Bn	8f]	1r
.	.	16e-	.
.	.	16d	.
.	[4c	4e-	.
16F	.	.	.
16E-	.	.	.
8F	4c]	4.d	.
8D	.	.	.
8G	[4B-	.	.
8GG	.	16en	.
.	.	16d	.
=8	=8	=8	=8
2.C	4B-]	8en	4r
.	.	8c	.
.	8A-	4f	4cc
.	16B-	.	.
.	16A-	.	.
.	8G	4g	4ee-
.	16An	.	.
.	16B-	.	.
4E-	[4c	4an	8dd
.	.	.	8cc
=9	=9	=9	=9
4D	8c]	4f#	4.dd
.	16B-	.	.
.	16An	.	.
[4G	4B-	4g	.
.	.	.	16cc
.	.	.	16b-
4G]	4.A	4e-	8cc
.	.	.	8an
[4Fn	.	4r	8dd
.	16Bn	.	8d
.	16c	.	.
=10	=10	=10	=10
4F]	8Bn	1r	4.g
.	8G	.	.
4E-	[4c	.	.
.	.	.	16an
.	.	.	16g
4D	4c]	.	8f#
.	.	.	8d
8r	8B-	.	[4dd
8D	8An	.	.
=11	=11	=11	=11
4E-	4G	1r	8dd]
.	.	.	8g
8D	8r	.	[4cc
8C	8an	.	.
4.D	8f#	.	4cc]
.	8d	.	.
.	[4g	.	4b-
16C	.	.	.
16BB-	.	.	.
=12	=12	=12	=12
8C	4g]	1r	4.an
8AAn	.	.	.
8D	[4fn	.	.
8DD	.	.	16bn
.	.	.	16a
4.GG	4f]	.	8b
.	.	.	8g
.	4e-	.	[4cc
16F	.	.	.
16E-	.	.	.
=13	=13	=13	=13
8F	4.d	1r	4cc]
8D	.	.	.
8G	.	.	[4b-
8GG	16en	.	.
.	16d	.	.
4.C	8e	.	4b-]
.	8c	.	.
.	[4f	.	4a-
16B-	.	.	.
16A-	.	.	.
=14	=14	=14	=14
8B-	4f]	2r	4g
8G	.	.	.
8c	4en	.	4gg
8c	.	.	.
8F	2f	4r	4aa-
8G	.	.	.
8A-	.	4cc	8gg
16B-	.	.	8ff
16A-	.	.	.
=15	=15	=15	=15
4G	4e-	4ee-	4.gg
[4c	4g	8dd	.
.	.	8cc	16ff
.	.	.	16ee-
4c]	4a-	4dd	8ff
.	.	.	8dd
[4B-	4d	4r	8gg
.	.	.	8g
=16	=16	=16	=16
4B-]	8en	1r	4cc
.	8c	.	.
[4A-	4f	.	8r
.	.	.	8ff
4A-]	4B-	.	8dd
.	.	.	8b-
4G	[4e-	.	8r
.	.	.	8gg
=17	=17	=17	=17
4F	4e-]	1r	8aa-
.	.	.	8ff
4G	[4d-	.	8bb-
.	.	.	8b-
4.A-	8d-]	.	4ee-
.	16c	.	.
.	16B-	.	.
.	8c	.	[4aa-
8F	8f	.	.
=18	=18	=18	=18
4.G	4B-	2r	8aa-]
.	.	.	16gg
.	.	.	16ff
.	[4e-	.	8gg
8A-	.	.	8ccc
4B-	8e-]	4r	4ff
.	16dn	.	.
.	16c	.	.
4r	8d	8r	[4bb-
.	8B-	8dd	.
=19	=19	=19	=19
1r	4c	8ee-	4bb-]
.	.	8cc	.
.	4d	8ff	[4aa-
.	.	8f	.
.	4e-	4b-	8aa-]
.	.	.	16gg
.	.	.	16ff
.	8r	[4ee-	4gg
.	8G	.	.
=20	=20	=20	=20
1r	4An	8ee-]	4.ff
.	.	16dd	.
.	.	16cc	.
.	4Bn	[4dd	.
.	.	.	16gg
.	.	.	16ff
.	8c	8dd]	4.ee-
.	8B-	8g	.
.	8A	[4cc	.
.	8G	.	8ee-
=21	=21	=21	=21
1r	8F#	8cc]	[2dd
.	8D	16b-	.
.	.	16an	.
.	8r	8b-	.
.	8d	8f#	.
.	4e-	4.g	8dd]
.	.	.	16cc
.	.	.	16b-
.	8d	.	[4cc
.	8c	8a	.
=22	=22	=22	=22
1r	4.d	4f#	8cc]
.	.	.	16b-
.	.	.	16an
.	.	[4g	4b-
.	16c	.	.
.	16B-	.	.
.	8c	4g]	4.a
.	8An	.	.
.	8d	4f#	.
.	8D	.	16bn
.	.	.	16a
=23	=23	=23	=23
1r	4G	4fn	8bn
.	.	.	16g
.	.	.	16an
.	4c	4en	8b-
.	.	.	16cc
.	.	.	16b-
.	4F	4e-	8a
.	.	.	16f
.	.	.	16g
.	4B-	4d	8a-
.	.	.	16b-
.	.	.	16a-
=24	=24	=24	=24
4r	4.E-	8e-	[2g
.	.	8d	.
4GG	.	8c	.
.	8D	8Bn	.
4AA-	4C	4.c	8g]
.	.	.	16f
.	.	.	16en
8GG	4A-	.	[4f
8FF	.	16d	.
.	.	16c	.
=25	=25	=25	=25
4.GG	4D	4Bn	4f]
.	4G	[4c	4e-
16FF	.	.	.
16EE-	.	.	.
8FF	4A-	4c]	4.d
8DD	.	.	.
8GG	4G	4B	.
8GG	.	.	8d
=26	=26	=26	=26
4CC	4G	4c	8e-
.	.	.	8c
8r	8r	[4a-	4r
8C	8e-	.	.
8D-	4B-	8a-]	2r
8BB-	.	16b-	.
.	.	16a-	.
8E-	8r	8g	.
8EE-	[8g	16a-	.
.	.	16b-	.
=27	=27	=27	=27
4AA-	4g]	8cc	1r
.	.	8c	.
4AAn	8r	[4f	.
.	8c	.	.
4BB-	4d-	8f]	.
.	.	16g	.
.	.	16a-	.
4G	8c	[4b-	.
.	8B-	.	.
=28	=28	=28	=28
4En	4.c	8b-]	4r
.	.	16a-	.
.	.	16g	.
4F	.	[4a-	4cc
.	8f	.	.
4B-	4d-	8a-]	4dd-
.	.	8f	.
4E-	8e-	4g	8cc
.	[8B-	.	8b-
=29	=29	=29	=29
4En	8B-]	4g	4cc
.	16c	.	.
.	16B-	.	.
4C	8A-	4en	[4cc
.	8G	.	.
4D-	4F	4.f	8cc]
.	.	.	16b-
.	.	.	16an
8C	4r	.	[4b-
8BB-	.	8g	.
=30	=30	=30	=30
4.C	2r	4en	4b-]
.	.	[4f	4a-
16BB-	.	.	.
16AA-	.	.	.
8BB-	4r	4f]	[2g
8GG	.	.	.
8C	4G	8e-	.
8CC	.	8d	.
=31	=31	=31	=31
4FF	4A-	4c	8g]
.	.	.	16f
.	.	.	16e-
4D	8G	8B-	[4f
.	8F	8A-	.
4BBn	4.G	4r	8f]
.	.	.	16e-
.	.	.	16d
[4C	.	4c	4e-
.	16F	.	.
.	16E-	.	.
=32	=32	=32	=32
4C]	8F	4A-	4.d
.	8D	.	.
[4BB-	8G	4r	.
.	8GG	.	16en
.	.	.	16d
4BB-]	4C	4G	8e
.	.	.	8c
[4AA-	4C	8A-	8f
.	.	8G	8e-
=33	=33	=33	=33
4AA-]	4D	4F	8d
.	.	.	8B-
4GG	8r	4E-	[4b-
.	8B-	.	.
4EE-	4c	2r	8b-]
.	.	.	16a-
.	.	.	16g
4FF	8B-	.	[4a-
.	8A-	.	.
=34	=34	=34	=34
4DD	4.B-	4r	8a-]
.	.	.	16g
.	.	.	16f
4E-	.	[4g	4b-
.	16A-	.	.
.	16G	.	.
4AA-	4A-	8g]	4cc
.	.	16f	.
.	.	16e-	.
[4A-	4c	4f	8b-
.	.	.	8a-
=35	=35	=35	=35
8A-]	8d	4f	4.b-
16G	8B-	.	.
16F	.	.	.
8G	4e-	4r	.
[8E-	.	.	16a-
.	.	.	16g
4E-]	[4F	2r	8a-
.	.	.	8f
[4D-	8F]	.	8b-
.	16E-	.	8B-
.	16F	.	.
=36	=36	=36	=36
4D-]	8G	1r	4.e-
.	8E-	.	.
4C	[4A-	.	.
.	.	.	16dn
.	.	.	16c
2BB-	8A-]	.	8d
.	16G	.	8B-
.	16F	.	.
.	8G	.	[4e-
.	8E-	.	.
=37	=37	=37	=37
8B-	4r	1r	8e-]
8F	.	.	16d
.	.	.	16c
8B-	[4d	.	4ff
8D	.	.	.
4E-	8d]	.	4gg
.	8G	.	.
8D	[4c	.	8ff
8C	.	.	8ee-
=38	=38	=38	=38
4D	8c]	1r	4.ff
.	16B-	.	.
.	16An	.	.
4G	[4B-	.	16ee-
.	.	.	16dd
4C	4B-]	.	8ee-
.	.	.	8cc
4D	[4A-	.	8ff
.	.	.	8f
=39	=39	=39	=39
4.E-	8A-]	1r	4b-
.	16G	.	.
.	16F	.	.
.	8G	.	[4ee-
8C	8c	.	.
4.D	4F	.	8ee-]
.	.	.	16dd
.	.	.	16cc
.	[4B-	.	8dd
8E-	.	.	8gg
=40	=40	=40	=40
4F	8B-]	1r	4.cc
.	16An	.	.
.	16G	.	.
8F#	[4A	.	.
8D	.	.	16dd
.	.	.	16cc
8GG	8A]	.	4.b-
8AAn	16G	.	.
.	16F#	.	.
8BB-	[4G	.	.
8C	.	.	8ee-
=41	=41	=41	=41
4D	8G]	4r	4.an
.	16F#	.	.
.	16En	.	.
[4D	8F#	4d	.
.	8An	.	16g
.	.	.	16f#
8D]	4B-	4e-	4g
16C	.	.	.
16BB-	.	.	.
[4C	4A	8d	4a
.	.	8c	.
=42	=42	=42	=42
8C]	4An	4.d	4f#
16BB-	.	.	.
16AAn	.	.	.
8BB-	4r	.	4g
[8G	.	16c	.
.	.	16B-	.
4G]	2r	8c	4.an
.	.	8A	.
4Fn	.	8d	.
.	.	8D	16bn
.	.	.	16cc
=43	=43	=43	=43
4F	1r	4G	8bn
.	.	.	8g
4E-	.	8r	[4cc
.	.	8an	.
8D	.	4f#	8cc]
8d	.	.	8dd
8e-	.	4g	8b-
8c	.	.	8a
=44	=44	=44	=44
4r	4d	4g	4b-
4DD	[4d	4f#	8.an
.	.	.	16g
4EE-	8d]	4g	4.g
.	16c	.	.
.	16B-	.	.
8DD	[4c	4r	.
8CC	.	.	16a
.	.	.	16g
=45	=45	=45	=45
4DD	4c]	4r	8f#
.	.	.	16d
.	.	.	16e-
4G	4Bn	8fn	4dd
.	.	16g	.
.	.	16f	.
4C	8c	4e-	4ee-
.	8G	.	.
4F	[4An	8f	8dd
.	.	8e-	8cc
=46	=46	=46	=46
4BB-	8A]	4d	4.dd
.	16G	.	.
.	16F#	.	.
[4G	4G	4g	.
.	.	.	16cc
.	.	.	16b-
8G]	2r	4a-	8cc
16Fn	.	.	8cc
16E-	.	.	.
[4F	.	8g	8dd
.	.	8f	8d
=47	=47	=47	=47
8F]	2B-	4.g	4r
16En	.	.	.
16D	.	.	.
8E-	.	.	4gg
8c	.	16f	.
.	.	16en	.
4.F	4A-	8f	4aa-
.	.	8c	.
.	[4d	4r	8gg
8F	.	.	8ff
=48	=48	=48	=48
4.E-	8d]	1r	4.gg
.	16c	.	.
.	16Bn	.	.
.	[4c	.	.
16D	.	.	16ff
16C	.	.	16ee-
8D	8c]	.	8ff
8G	16B-	.	8dd
.	16A-	.	.
4En	[4B-	.	8gg
.	.	.	8g
=49	=49	=49	=49
4F	8B-]	1r	4.cc
.	16A-	.	.
.	16G	.	.
8A-	[4f	.	.
8F	.	.	8dd
4G	8f]	.	8bn
.	16e-	.	8g
.	16d	.	.
8c	[4e-	.	8r
8E-	.	.	8cc
=50	=50	=50	=50
4F	8e-]	1r	8an
.	16d	.	8f
.	16c	.	.
[4B-	4d	.	8r
.	.	.	8dd
4B-]	4.c	.	8ee-
.	.	.	8cc
[4A-	.	.	8ff
.	16B-	.	8f
.	16c	.	.
=51	=51	=51	=51
4A-]	8d	2r	4b-
.	8B-	.	.
8G	[4e-	.	8r
8E-	.	.	8gg
4r	4e-]	2f	8aa-
.	.	.	8ff
[4d	4r	.	8bb-
.	.	.	8b-
=52	=52	=52	=52
8d]	1r	4g	4.ee-
8G	.	.	.
[4c	.	4e-	.
.	.	.	16ff
.	.	.	16ee-
4c]	.	2d	8ff
.	.	.	8dd
[4B-	.	.	8gg
.	.	.	8g
=53	=53	=53	=53
8B-]	1r	8e-	4cc
16A-	.	8c	.
16G	.	.	.
[4A-	.	4f	8r
.	.	.	8ff
4A-]	.	4B-	8dd
.	.	.	8b-
8r	.	8r	[4ee-
8G	.	8b-	.
=54	=54	=54	=54
8A-	1r	4.f	4ee-]
8F	.	.	.
8B-	.	.	[4dd
8BB-	.	16g	.
.	.	16a-	.
4.E-	.	4g	8dd]
.	.	.	16cc
.	.	.	16bn
.	.	8r	[4cc
16D	.	16f	.
16C	.	16e-	.
=55	=55	=55	=55
8F	1r	4.d	4cc]
8D	.	.	.
8G	.	.	[4b-
8GG	.	8g	.
4.C	.	4.e-	8b-]
.	.	.	16a-
.	.	.	16g
.	.	.	[4a-
8FF	.	16d	.
.	.	16c	.
=56	=56	=56	=56
4.BB-	1r	4.d	8a-]
.	.	.	16g
.	.	.	16f
.	.	.	[4g
8EE-	.	8e-	.
4.AA-	.	4c	8g]
.	.	.	8a-
.	.	[4f	8r
16GG	.	.	8dd
16FF	.	.	.
=57	=57	=57	=57
4GG	1r	4f]	8bn
.	.	.	8g
4r	.	8e-	4gg
.	.	8d	.
2r	.	4c	4aa-
.	.	4cc	8gg
.	.	.	8ff
=58	=58	=58	=58
1r	4r	4ee-	4.gg
.	4G	4bn	.
.	.	.	16ff
.	.	.	16ee-
.	4A-	4.cc	8ff
.	.	.	8f
.	8G	.	[4ff
.	8F	8dd	.
=59	=59	=59	=59
1r	4.G	4bn	8ff]
.	.	.	16ee-
.	.	.	16dd
.	.	[4cc	4ee-
.	16F	.	.
.	16E-	.	.
.	8F	4cc]	4.dd
.	8D	.	.
.	8G	[4b-	.
.	8GG	.	16ee-
.	.	.	16dd
=60	=60	=60	=60
1r	4C	8b-]	4.cc
.	.	16a-	.
.	.	16g	.
.	[4F	4a-	.
.	.	.	16dd
.	.	.	16cc
.	4F]	4d	8bn
.	.	.	16g
.	.	.	16an
.	4En	4g	8b-
.	.	.	16cc
.	.	.	16b-
=61	=61	=61	=61
2r	4E-	4c	8an
.	.	.	16f
.	.	.	16g
.	4D	[4f	8a-
.	.	.	16b-
.	.	.	16a-
4r	4.E-	8f]	[2g
.	.	16e-	.
.	.	16d	.
4GG	.	8e-	.
.	8D	8Bn	.
=62	=62	=62	=62
4AA-	4C	4.c	4g]
8GG	4A-	.	4f
8FF	.	8d	.
4GG	4G	4Bn	4f
4CC	4G	[4c	4e-
=63	=63	=63	=63
!! Adagio
2GG	4.G	4c]	2d
.	.	4Bn	.
.	8F	.	.
2CC 2C	2E-	2G	2c
====	====	====	====
*-	*-	*-	*-
